flags/gr.svg

<svg viewBox="0 0 27 18" xmlns="http://www.w3.org/2000/svg"><path d="m0 0h27v18h-27z" fill="#0d5eaf"/><path d="m5 0v11m-5-6h10m0-2h17m-17 4h17m-27 4h27m-27 4h27" fill="none" stroke="#fff" stroke-width="2"/></svg>

<svg xmlns="http://www.w3.org/2000/svg" viewBox="0 0 27 18">
<rect fill="#0D5EAF" width="27" height="18"/>
<path fill="none" stroke-width="2" stroke="#FFF" d="M5,0V11 M0,5H10 M10,3H27 M10,7H27 M0,11H27 M0,15H27"/>
</svg>
